app/assets/svg/edit.svg

<svg width="8px" height="12px" viewBox="68 6 8 12" version="1.1" xmlns="http://www.w3.org/2000/svg" xmlns:xlink="http://www.w3.org/1999/xlink">
    <!-- Generator: Sketch 3.8.3 (29802) - http://www.bohemiancoding.com/sketch -->
    <desc>Created with Sketch.</desc>
    <defs></defs>
    <path d="M74.847868,10.1196544 L75.9287677,8.10208484 L72.5507187,6 L71.575469,7.82014481 L71.2506091,8.42662671 L68,14.4942637 L68.7137738,17.3654724 L71.378049,16.5956279 L74.6286581,10.5287116 L74.847868,10.1196544 L74.847868,10.1196544 Z M69.2010697,16.4550236 L68.7249988,14.5418452 L68.7249988,14.5411246 L70.9772491,15.9429949 L69.2010697,16.4550236 L69.2010697,16.4550236 Z M71.3027691,15.3358031 L69.0505197,13.9346534 L71.8138389,8.77673399 L74.0654283,10.1785935 L71.3027691,15.3358031 L71.3027691,15.3358031 Z M72.1386988,8.17026284 L72.7890886,6.9573001 L75.041998,8.35844872 L74.3902882,9.57141253 L72.1386988,8.17026284 L72.1386988,8.17026284 Z" id="path25_fill" stroke="none" fill="#828282" fill-rule="evenodd"></path>
</svg>

<svg width="8" height="12" viewBox="68 6 8 12" xmlns="http://www.w3.org/2000/svg"><path d="M74.848 10.12l1.08-2.018L72.552 6l-.976 1.82-.324.607L68 14.494l.714 2.871 2.664-.77 3.25-6.066.22-.41zM69.2 16.455l-.476-1.913 2.252 1.401-1.776.512zm2.102-1.12l-2.252-1.4 2.763-5.158 2.251 1.402-2.762 5.157zm.836-7.165l.65-1.213 2.253 1.401-.652 1.213-2.251-1.4z" fill="#828282" fill-rule="evenodd"/></svg>
